images/advantages-icon-5.svg

<svg width="70" height="66" viewBox="0 0 70 66" fill="none" xmlns="http://www.w3.org/2000/svg">
<g clip-path="url(#clip0_52_9485)">
<path d="M18.1775 17.7697C15.6114 16.6272 12.5483 15.5104 9.85496 14.594C7.94142 13.9429 6.19215 13.3848 4.90485 12.9817C4.26195 12.7804 3.73201 12.6167 3.35822 12.5006C3.17018 12.4422 3.02361 12.3972 2.92057 12.3642C2.87765 12.3505 2.84517 12.3393 2.82197 12.3315C2.13059 11.9968 1.86233 11.6925 1.72171 11.4366C1.55383 11.1311 1.48959 10.7726 1.39298 10.1171C1.37338 9.98386 1.36896 9.84134 1.38087 9.69336L1.38073 9.69239C1.46984 8.71495 2.32147 8.01077 3.26579 8.09628L3.26662 8.09517C4.5389 8.21565 7.17779 9.19851 10.572 11.4486C12.8744 12.975 15.4799 15.0559 18.1775 17.7697ZM57.2119 53.755C57.6912 53.947 57.7164 54.5109 57.4255 54.7688L57.3633 54.8156L57.3625 54.8167C53.6098 57.2456 48.8029 59.0186 44.0183 59.7295C29.918 61.8242 17.0691 55.768 11.591 44.7838L11.5784 44.7581L11.5638 44.7326C10.3881 42.6792 9.55378 40.3846 9.18817 37.904C8.69661 34.5683 10.0243 31.2615 12.3543 28.2697C14.5929 25.3954 17.687 22.9102 20.6877 21.1247C20.6934 21.1291 20.6978 21.134 20.7023 21.1374C20.7391 21.165 20.7802 21.1938 20.817 21.219C20.8928 21.2709 20.9968 21.34 21.117 21.4193C21.3389 21.5658 21.6413 21.7638 22.0112 22.0141C26.0219 26.8855 30.0179 33.1941 33.3341 41.1872L33.6551 41.9718C33.9328 42.6596 34.2868 43.2916 34.8348 43.7069C35.4357 44.1621 36.1204 44.2504 36.804 44.1488C38.3543 43.9183 39.4125 42.4576 39.1853 40.9162C38.4344 35.822 35.3551 31.3401 32.0747 27.8535C28.8453 24.4212 25.3307 21.8587 23.3713 20.5197C23.1205 20.2177 22.87 19.9207 22.6192 19.6293C23.3314 19.0264 24.3122 18.303 25.3828 17.6381C26.9173 16.6851 28.4702 15.9532 29.5585 15.7915C32.1086 15.4126 35.4793 16.6256 38.6483 18.9559C41.788 21.2647 44.5296 24.5287 45.8561 27.9227L45.8569 27.9216C46.9461 30.7159 47.345 33.5098 47.1922 36.1842L47.1544 36.718C46.57 43.5997 50.0278 50.6938 56.8818 53.6185L57.2108 53.7542L57.2119 53.755Z" fill="#95F094" stroke="#142245" stroke-width="2"/>
<path d="M60.9695 25.5038C61.1535 25.7267 61.366 25.9873 61.6004 26.2802C62.4358 27.324 63.5481 28.7757 64.658 30.4101C65.7701 32.0477 66.8677 33.8504 67.6834 35.5976C68.5082 37.3644 68.9997 38.9809 68.9998 40.2734C68.9998 42.2802 68.256 44.2099 66.9217 45.6894L66.6463 45.9785C65.1402 47.4906 63.0987 48.3397 60.9705 48.3398C58.9752 48.3398 57.0551 47.5941 55.5818 46.2548L55.2938 45.9785C53.7875 44.4661 52.9402 42.4139 52.9402 40.2734C52.9404 38.9809 53.4327 37.3645 54.2576 35.5976C55.0733 33.8504 56.17 32.0477 57.282 30.4101C58.3919 28.7758 59.5043 27.324 60.3397 26.2802C60.5738 25.9876 60.7857 25.7265 60.9695 25.5038Z" fill="#8CD6FD" stroke="#142245" stroke-width="2"/>
</g>
<defs>
<clipPath id="clip0_52_9485">
<rect width="70" height="66" fill="white"/>
</clipPath>
</defs>
</svg>

<svg width="70" height="66" fill="none" xmlns="http://www.w3.org/2000/svg"><g clip-path="url(#clip0_52_9485)" stroke="#142245" stroke-width="2"><path d="M18.177 17.77c-2.566-1.143-5.629-2.26-8.322-3.176a213.793 213.793 0 00-4.95-1.612c-.643-.202-1.173-.365-1.547-.481l-.437-.137-.099-.033c-.691-.334-.96-.638-1.1-.894-.168-.306-.232-.664-.329-1.32a1.882 1.882 0 01-.012-.424h0a1.747 1.747 0 011.885-1.597h0c1.273.12 3.912 1.103 7.306 3.353 2.302 1.526 4.908 3.607 7.605 6.32zm39.035 35.985a.61.61 0 01.213 1.014l-.062.047h0c-3.753 2.43-8.56 4.203-13.345 4.913-14.1 2.095-26.949-3.961-32.427-14.945l-.013-.026-.014-.025a19.41 19.41 0 01-2.376-6.829c-.491-3.336.836-6.643 3.166-9.634 2.239-2.875 5.333-5.36 8.334-7.145l.014.012c.037.028.078.057.115.082.076.052.18.121.3.2.222.147.524.345.894.595 4.01 4.872 8.007 11.18 11.323 19.173l.321.785c.278.688.632 1.32 1.18 1.735.6.455 1.285.543 1.969.442 1.55-.23 2.608-1.691 2.381-3.233-.75-5.094-3.83-9.576-7.11-13.062-3.23-3.433-6.744-5.995-8.704-7.334-.25-.302-.501-.6-.752-.89a24.196 24.196 0 012.764-1.992c1.534-.953 3.087-1.685 4.175-1.847 2.55-.378 5.921.835 9.09 3.165 3.14 2.309 5.882 5.573 7.208 8.967v-.001c1.09 2.794 1.489 5.588 1.336 8.262l-.038.534c-.584 6.882 2.874 13.976 9.728 16.9l.329.136v.001z" fill="#95F094"/><path d="M60.97 25.504a66.729 66.729 0 013.689 4.906c1.111 1.638 2.209 3.44 3.024 5.188C68.508 37.364 69 38.98 69 40.273a8.088 8.088 0 01-2.078 5.416l-.276.29a8.011 8.011 0 01-5.675 2.36 8.011 8.011 0 01-5.39-2.084l-.287-.277a8.085 8.085 0 01-2.354-5.705c0-1.292.493-2.909 1.318-4.675.815-1.748 1.912-3.55 3.024-5.188a66.756 66.756 0 013.688-4.906z" fill="#8CD6FD"/></g><defs><clipPath id="clip0_52_9485"><path fill="#fff" d="M0 0h70v66H0z"/></clipPath></defs></svg>
